static/img/kroki/07c787205578b34bcfacbf63a80ddb13.svg

<?xml version="1.0" encoding="us-ascii" standalone="no"?><svg xmlns="http://www.w3.org/2000/svg" xmlns:xlink="http://www.w3.org/1999/xlink" contentStyleType="text/css" height="840px" preserveAspectRatio="none" style="width:241px;height:840px;" version="1.1" viewBox="0 0 241 840" width="241px" zoomAndPan="magnify"><defs/><g><!--class phantom_resource--><g id="elem_phantom_resource"><rect codeLine="23" fill="#3D176E" height="39.7891" id="phantom_resource" rx="2.5" ry="2.5" style="stroke:#000D19;stroke-width:0.5;" width="198" x="21.5" y="438.76"/><ellipse cx="36.5" cy="458.6545" fill="#ADD1B2" rx="11" ry="11" style="stroke:#181818;stroke-width:1.0;"/><path d="M39.4688,464.2952 Q38.8906,464.592 38.25,464.7327 Q37.6094,464.8889 36.9063,464.8889 Q34.4063,464.8889 33.0781,463.2483 Q31.7656,461.592 31.7656,458.467 Q31.7656,455.342 33.0781,453.6858 Q34.4063,452.0295 36.9063,452.0295 Q37.6094,452.0295 38.25,452.1858 Q38.9063,452.342 39.4688,452.6389 L39.4688,455.3577 Q38.8438,454.7795 38.25,454.5139 Q37.6563,454.2327 37.0313,454.2327 Q35.6875,454.2327 35,455.3108 Q34.3125,456.3733 34.3125,458.467 Q34.3125,460.5608 35,461.6389 Q35.6875,462.7014 37.0313,462.7014 Q37.6563,462.7014 38.25,462.4358 Q38.8438,462.1545 39.4688,461.5764 L39.4688,464.2952 Z " fill="#000000"/><text fill="#D9B8FF" font-family="Helvetica" font-size="17" lengthAdjust="spacing" textLength="156" x="55.5" y="464.5398">phantom_resource</text></g><!--class resource--><g id="elem_resource"><rect codeLine="26" fill="#3D176E" height="310.7578" id="resource" rx="2.5" ry="2.5" style="stroke:#000D19;stroke-width:0.5;" width="227" x="7" y="7"/><ellipse cx="75.75" cy="26.8945" fill="#ADD1B2" rx="11" ry="11" style="stroke:#181818;stroke-width:1.0;"/><path d="M78.7188,32.5352 Q78.1406,32.832 77.5,32.9727 Q76.8594,33.1289 76.1563,33.1289 Q73.6563,33.1289 72.3281,31.4883 Q71.0156,29.832 71.0156,26.707 Q71.0156,23.582 72.3281,21.9258 Q73.6563,20.2695 76.1563,20.2695 Q76.8594,20.2695 77.5,20.4258 Q78.1563,20.582 78.7188,20.8789 L78.7188,23.5977 Q78.0938,23.0195 77.5,22.7539 Q76.9063,22.4727 76.2813,22.4727 Q74.9375,22.4727 74.25,23.5508 Q73.5625,24.6133 73.5625,26.707 Q73.5625,28.8008 74.25,29.8789 Q74.9375,30.9414 76.2813,30.9414 Q76.9063,30.9414 77.5,30.6758 Q78.0938,30.3945 78.7188,29.8164 L78.7188,32.5352 Z " fill="#000000"/><text fill="#D9B8FF" font-family="Helvetica" font-size="17" lengthAdjust="spacing" textLength="71" x="101.25" y="32.7798">resource</text><line style="stroke:#000D19;stroke-width:0.5;" x1="8" x2="233" y1="46.7891" y2="46.7891"/><text fill="#D9B8FF" font-family="sans-serif" font-size="14" font-weight="bold" lengthAdjust="spacing" textLength="29" x="18" y="68.7842">age</text><text fill="#D9B8FF" font-family="sans-serif" font-size="14" lengthAdjust="spacing" textLength="66" x="47" y="68.7842">: duration</text><text fill="#D9B8FF" font-family="sans-serif" font-size="14" font-weight="bold" lengthAdjust="spacing" textLength="43" x="18" y="95.0811">atime</text><text fill="#D9B8FF" font-family="sans-serif" font-size="14" lengthAdjust="spacing" textLength="70" x="61" y="95.0811">: datetime</text><text fill="#D9B8FF" font-family="sans-serif" font-size="14" font-weight="bold" lengthAdjust="spacing" textLength="43" x="18" y="121.3779">ctime</text><text fill="#D9B8FF" font-family="sans-serif" font-size="14" lengthAdjust="spacing" textLength="70" x="61" y="121.3779">: datetime</text><text fill="#D9B8FF" font-family="sans-serif" font-size="14" font-weight="bold" lengthAdjust="spacing" textLength="14" x="18" y="147.6748">id</text><text fill="#D9B8FF" font-family="sans-serif" font-size="14" lengthAdjust="spacing" textLength="48" x="32" y="147.6748">: string</text><text fill="#D9B8FF" font-family="sans-serif" font-size="14" font-weight="bold" lengthAdjust="spacing" textLength="33" x="18" y="173.9717">kind</text><text fill="#D9B8FF" font-family="sans-serif" font-size="14" lengthAdjust="spacing" textLength="48" x="51" y="173.9717">: string</text><text fill="#D9B8FF" font-family="sans-serif" font-size="14" font-weight="bold" lengthAdjust="spacing" textLength="90" x="18" y="200.2686">last_access</text><text fill="#D9B8FF" font-family="sans-serif" font-size="14" lengthAdjust="spacing" textLength="66" x="108" y="200.2686">: duration</text><text fill="#D9B8FF" font-family="sans-serif" font-size="14" font-weight="bold" lengthAdjust="spacing" textLength="90" x="18" y="226.5654">last_update</text><text fill="#D9B8FF" font-family="sans-serif" font-size="14" lengthAdjust="spacing" textLength="66" x="108" y="226.5654">: duration</text><text fill="#D9B8FF" font-family="sans-serif" font-size="14" font-weight="bold" lengthAdjust="spacing" textLength="48" x="18" y="252.8623">mtime</text><text fill="#D9B8FF" font-family="sans-serif" font-size="14" lengthAdjust="spacing" textLength="70" x="66" y="252.8623">: datetime</text><text fill="#D9B8FF" font-family="sans-serif" font-size="14" font-weight="bold" lengthAdjust="spacing" textLength="43" x="18" y="279.1592">name</text><text fill="#D9B8FF" font-family="sans-serif" font-size="14" lengthAdjust="spacing" textLength="48" x="61" y="279.1592">: string</text><text fill="#D9B8FF" font-family="sans-serif" font-size="14" font-weight="bold" lengthAdjust="spacing" textLength="34" x="18" y="305.4561">tags</text><text fill="#D9B8FF" font-family="sans-serif" font-size="14" lengthAdjust="spacing" textLength="171" x="52" y="305.4561">: dictionary[string, string]</text></g><!--class vsphere_cluster--><g id="elem_vsphere_cluster"><rect codeLine="38" fill="#3D176E" height="39.7891" id="vsphere_cluster" rx="2.5" ry="2.5" style="stroke:#000D19;stroke-width:0.5;" width="173" x="34" y="794.63"/><ellipse cx="49" cy="814.5245" fill="#ADD1B2" rx="11" ry="11" style="stroke:#181818;stroke-width:1.0;"/><path d="M51.9688,820.1652 Q51.3906,820.462 50.75,820.6027 Q50.1094,820.7589 49.4063,820.7589 Q46.9063,820.7589 45.5781,819.1183 Q44.2656,817.462 44.2656,814.337 Q44.2656,811.212 45.5781,809.5558 Q46.9063,807.8995 49.4063,807.8995 Q50.1094,807.8995 50.75,808.0558 Q51.4063,808.212 51.9688,808.5089 L51.9688,811.2277 Q51.3438,810.6495 50.75,810.3839 Q50.1563,810.1027 49.5313,810.1027 Q48.1875,810.1027 47.5,811.1808 Q46.8125,812.2433 46.8125,814.337 Q46.8125,816.4308 47.5,817.5089 Q48.1875,818.5714 49.5313,818.5714 Q50.1563,818.5714 50.75,818.3058 Q51.3438,818.0245 51.9688,817.4464 L51.9688,820.1652 Z " fill="#000000"/><text fill="#D9B8FF" font-family="Helvetica" font-size="17" lengthAdjust="spacing" textLength="131" x="68" y="820.4098">vsphere_cluster</text></g><!--class zone--><g id="elem_zone"><rect codeLine="41" fill="#3D176E" height="74.0859" id="zone" rx="2.5" ry="2.5" style="stroke:#000D19;stroke-width:0.5;" width="154" x="43.5" y="599.55"/><ellipse cx="91.75" cy="619.4445" fill="#ADD1B2" rx="11" ry="11" style="stroke:#181818;stroke-width:1.0;"/><path d="M94.7188,625.0852 Q94.1406,625.382 93.5,625.5227 Q92.8594,625.6789 92.1563,625.6789 Q89.6563,625.6789 88.3281,624.0383 Q87.0156,622.382 87.0156,619.257 Q87.0156,616.132 88.3281,614.4758 Q89.6563,612.8195 92.1563,612.8195 Q92.8594,612.8195 93.5,612.9758 Q94.1563,613.132 94.7188,613.4289 L94.7188,616.1477 Q94.0938,615.5695 93.5,615.3039 Q92.9063,615.0227 92.2813,615.0227 Q90.9375,615.0227 90.25,616.1008 Q89.5625,617.1633 89.5625,619.257 Q89.5625,621.3508 90.25,622.4289 Q90.9375,623.4914 92.2813,623.4914 Q92.9063,623.4914 93.5,623.2258 Q94.0938,622.9445 94.7188,622.3664 L94.7188,625.0852 Z " fill="#000000"/><text fill="#D9B8FF" font-family="Helvetica" font-size="17" lengthAdjust="spacing" textLength="39" x="117.25" y="625.3298">zone</text><line style="stroke:#000D19;stroke-width:0.5;" x1="44.5" x2="196.5" y1="639.3391" y2="639.3391"/><text fill="#D9B8FF" font-family="sans-serif" font-size="14" font-weight="bold" lengthAdjust="spacing" textLength="84" x="54.5" y="661.3342">long_name</text><text fill="#D9B8FF" font-family="sans-serif" font-size="14" lengthAdjust="spacing" textLength="48" x="138.5" y="661.3342">: string</text></g><!--reverse link resource to phantom_resource--><g id="link_resource_phantom_resource"><path codeLine="44" d="M120.5,335.84 C120.5,384.13 120.5,413.36 120.5,438.67 " fill="none" id="resource-backto-phantom_resource" style="stroke:#FFAF37;stroke-width:2.0;"/><polygon fill="none" points="120.5,317.84,114.5,335.84,126.5,335.84,120.5,317.84" style="stroke:#FFAF37;stroke-width:2.0;"/></g><!--reverse link zone to vsphere_cluster--><g id="link_zone_vsphere_cluster"><path codeLine="45" d="M120.5,692.04 C120.5,728.68 120.5,765.72 120.5,794.48 " fill="none" id="zone-backto-vsphere_cluster" style="stroke:#FFAF37;stroke-width:2.0;"/><polygon fill="none" points="120.5,674.04,114.5,692.04,126.5,692.04,120.5,674.04" style="stroke:#FFAF37;stroke-width:2.0;"/></g><!--reverse link phantom_resource to zone--><g id="link_phantom_resource_zone"><path codeLine="46" d="M120.5,496.81 C120.5,525.67 120.5,562.79 120.5,599.37 " fill="none" id="phantom_resource-backto-zone" style="stroke:#FFAF37;stroke-width:2.0;"/><polygon fill="none" points="120.5,478.81,114.5,496.81,126.5,496.81,120.5,478.81" style="stroke:#FFAF37;stroke-width:2.0;"/></g><!--SRC=[XPBDJiCm48JlUGfBt2egjI0eHLoW4e8BGi0DeMfhRnAhYHsjDw3oy-x4TQbSfy0jcVcyinwvr0e5rWslH8tr0ibbRgbD0mIrk2IoRpDRMH87UGxvyIGrhwtXVu4xg57SOFMAh2Man5EfvTAWS-8eigv0BWkohL5XF1COrrbeEA9c5JXtoKnwqJ96owZfuYpFKp8TUd2infDJx66M5D866Or6QZnDaN-Z_hptbdZKxoZ6SMbtbh6tPYzYJVsvfIUY9NiN_V5_tV4UbDAc42UHzX1s8eEqep-MeEoRftEeN1pZ60ajhngSzMw5qpELJ_R2jx_1cVJLYQO4mxQU4phRaaJnaMLV6o_I1WCeS30u5webO6sDLrZNGGD6_zrfSe-cbHTSzxHCqVrsI-uANHRFGShkuIO9QwTj_Ap4gVVa60ZITZ134IPgwOy1hPw3TxXXNhPNVNLDsLKsbrNhkujRUBScD51PKyoJaAziMzB5vt0uxFMPhOy7Bmd9Ujq7p9_8lW40]--></g></svg>

<svg xmlns="http://www.w3.org/2000/svg" width="241" height="840" viewBox="0 0 241 840"><rect width="198" height="39.789" x="21.5" y="438.76" fill="#3D176E" rx="2.5" ry="2.5" style="stroke:#000d19;stroke-width:.5"/><circle cx="36.5" cy="458.654" r="11" fill="#ADD1B2" style="stroke:#181818;stroke-width:1"/><path d="M39.469 464.295q-.578.297-1.219.438-.64.156-1.344.156-2.5 0-3.828-1.64-1.312-1.657-1.312-4.782t1.312-4.781q1.328-1.656 3.828-1.656.703 0 1.344.156.656.156 1.219.453v2.719q-.625-.579-1.219-.844-.594-.281-1.219-.281-1.343 0-2.031 1.078-.687 1.062-.687 3.156t.687 3.172q.688 1.062 2.031 1.062.625 0 1.219-.265.594-.281 1.219-.86z"/><text x="55.5" y="464.54" fill="#D9B8FF" font-family="Helvetica" font-size="17" textLength="156">phantom_resource</text><rect width="227" height="310.758" x="7" y="7" fill="#3D176E" rx="2.5" ry="2.5" style="stroke:#000d19;stroke-width:.5"/><circle cx="75.75" cy="26.895" r="11" fill="#ADD1B2" style="stroke:#181818;stroke-width:1"/><path d="M78.719 32.535q-.578.297-1.219.438-.64.156-1.344.156-2.5 0-3.828-1.64-1.312-1.657-1.312-4.782t1.312-4.781q1.328-1.656 3.828-1.656.703 0 1.344.156.656.156 1.219.453v2.719q-.625-.578-1.219-.844-.594-.281-1.219-.281-1.344 0-2.031 1.078-.687 1.062-.687 3.156t.687 3.172q.688 1.062 2.031 1.062.625 0 1.219-.265.594-.281 1.219-.86z"/><text x="101.25" y="32.78" fill="#D9B8FF" font-family="Helvetica" font-size="17" textLength="71">resource</text><path d="M8 46.789h225" style="stroke:#000d19;stroke-width:.5"/><text x="18" y="68.784" fill="#D9B8FF" font-family="sans-serif" font-size="14" font-weight="bold" textLength="29">age</text><text x="47" y="68.784" fill="#D9B8FF" font-family="sans-serif" font-size="14" textLength="66">: duration</text><text x="18" y="95.081" fill="#D9B8FF" font-family="sans-serif" font-size="14" font-weight="bold" textLength="43">atime</text><text x="61" y="95.081" fill="#D9B8FF" font-family="sans-serif" font-size="14" textLength="70">: datetime</text><text x="18" y="121.378" fill="#D9B8FF" font-family="sans-serif" font-size="14" font-weight="bold" textLength="43">ctime</text><text x="61" y="121.378" fill="#D9B8FF" font-family="sans-serif" font-size="14" textLength="70">: datetime</text><text x="18" y="147.675" fill="#D9B8FF" font-family="sans-serif" font-size="14" font-weight="bold" textLength="14">id</text><text x="32" y="147.675" fill="#D9B8FF" font-family="sans-serif" font-size="14" textLength="48">: string</text><text x="18" y="173.972" fill="#D9B8FF" font-family="sans-serif" font-size="14" font-weight="bold" textLength="33">kind</text><text x="51" y="173.972" fill="#D9B8FF" font-family="sans-serif" font-size="14" textLength="48">: string</text><text x="18" y="200.269" fill="#D9B8FF" font-family="sans-serif" font-size="14" font-weight="bold" textLength="90">last_access</text><text x="108" y="200.269" fill="#D9B8FF" font-family="sans-serif" font-size="14" textLength="66">: duration</text><text x="18" y="226.565" fill="#D9B8FF" font-family="sans-serif" font-size="14" font-weight="bold" textLength="90">last_update</text><text x="108" y="226.565" fill="#D9B8FF" font-family="sans-serif" font-size="14" textLength="66">: duration</text><text x="18" y="252.862" fill="#D9B8FF" font-family="sans-serif" font-size="14" font-weight="bold" textLength="48">mtime</text><text x="66" y="252.862" fill="#D9B8FF" font-family="sans-serif" font-size="14" textLength="70">: datetime</text><text x="18" y="279.159" fill="#D9B8FF" font-family="sans-serif" font-size="14" font-weight="bold" textLength="43">name</text><text x="61" y="279.159" fill="#D9B8FF" font-family="sans-serif" font-size="14" textLength="48">: string</text><text x="18" y="305.456" fill="#D9B8FF" font-family="sans-serif" font-size="14" font-weight="bold" textLength="34">tags</text><text x="52" y="305.456" fill="#D9B8FF" font-family="sans-serif" font-size="14" textLength="171">: dictionary[string, string]</text><rect width="173" height="39.789" x="34" y="794.63" fill="#3D176E" rx="2.5" ry="2.5" style="stroke:#000d19;stroke-width:.5"/><circle cx="49" cy="814.524" r="11" fill="#ADD1B2" style="stroke:#181818;stroke-width:1"/><path d="M51.969 820.165q-.578.297-1.219.438-.64.156-1.344.156-2.5 0-3.828-1.64-1.312-1.657-1.312-4.782t1.312-4.781q1.328-1.657 3.828-1.657.703 0 1.344.157.656.156 1.219.453v2.719q-.625-.578-1.219-.844-.594-.281-1.219-.281-1.343 0-2.031 1.078-.687 1.062-.687 3.156t.687 3.172q.688 1.062 2.031 1.062.625 0 1.219-.265.594-.282 1.219-.86z"/><text x="68" y="820.41" fill="#D9B8FF" font-family="Helvetica" font-size="17" textLength="131">vsphere_cluster</text><rect width="154" height="74.086" x="43.5" y="599.55" fill="#3D176E" rx="2.5" ry="2.5" style="stroke:#000d19;stroke-width:.5"/><circle cx="91.75" cy="619.444" r="11" fill="#ADD1B2" style="stroke:#181818;stroke-width:1"/><path d="M94.719 625.085q-.578.297-1.219.438-.64.156-1.344.156-2.5 0-3.828-1.64-1.312-1.657-1.312-4.782t1.312-4.781q1.328-1.657 3.828-1.657.703 0 1.344.157.656.156 1.219.453v2.719q-.625-.579-1.219-.844-.594-.281-1.219-.281-1.344 0-2.031 1.078-.687 1.062-.687 3.156t.687 3.172q.688 1.062 2.031 1.062.625 0 1.219-.265.594-.282 1.219-.86z"/><text x="117.25" y="625.33" fill="#D9B8FF" font-family="Helvetica" font-size="17" textLength="39">zone</text><path d="M44.5 639.339h152" style="stroke:#000d19;stroke-width:.5"/><text x="54.5" y="661.334" fill="#D9B8FF" font-family="sans-serif" font-size="14" font-weight="bold" textLength="84">long_name</text><text x="138.5" y="661.334" fill="#D9B8FF" font-family="sans-serif" font-size="14" textLength="48">: string</text><path fill="none" d="M120.5 335.84v102.83m0-120.83-6 18h12zm0 374.2v102.44m0-120.44-6 18h12zm0-177.23v102.56m0-120.56-6 18h12z" style="stroke:#ffaf37;stroke-width:2"/></svg>
